assets/ai/ai-preregistered-de-square.svg

<svg xmlns="http://www.w3.org/2000/svg" width="100%" height="100%" viewBox="-75.52 -43.52 599.04 599.04"><path d="M 48 32 C 21.5 32 0 53.5 0 80 L 0 432 C 0 458.5 21.5 480 48 480 L 400 480 C 426.5 480 448 458.5 448 432 L 448 80 C 448 53.5 426.5 32 400 32 L 48 32 z M 224.02148 96 C 233.32502 96 242.66973 98.043924 249.7207 102.13672 L 344.38672 156.77734 C 358.53005 164.9546 370.12695 185.0057 370.12695 201.34766 L 370.12695 310.65039 C 370.12695 326.99654 358.53005 347.05548 344.38672 355.22852 L 249.7207 409.88281 C 242.66973 413.9631 233.32502 416 224.02148 416 C 214.67598 416 205.32991 413.9631 198.2793 409.88281 L 103.61523 355.22852 C 89.471907 347.05548 77.873047 326.99654 77.873047 310.65039 L 77.873047 201.34766 C 77.873047 185.0057 89.471907 164.9546 103.61523 156.77734 L 198.2793 102.13672 C 205.32991 98.043924 214.67598 96 224.02148 96 z M 193.60547 164.77148 L 193.60547 200.66406 L 209.29297 200.66406 C 219.55621 200.66406 227.85938 193.64113 227.85938 182.87305 C 227.85937 172.10494 219.55621 164.77148 209.29297 164.77148 L 193.60547 164.77148 z M 231.82031 164.77148 L 231.82031 200.66406 L 258.18945 200.66406 L 258.18945 192.61523 L 240.41797 192.61523 L 240.41797 186.25977 L 254.10156 186.25977 L 254.10156 178.71875 L 240.41797 178.71875 L 240.41797 172.81445 L 257.89648 172.81445 L 257.89648 164.77148 L 231.82031 164.77148 z M 202.24023 172.81445 L 209.29297 172.81445 C 214.42453 172.81445 218.88672 176.71509 218.88672 182.87305 C 218.88672 189.02267 214.42453 192.61523 209.29297 192.61523 L 202.24023 192.61523 L 202.24023 172.81445 z M 287.98438 218.35156 C 285.25676 218.35156 282.53191 219.38364 280.4668 221.45508 L 206.07812 295.83203 C 201.94777 299.97069 195.14987 299.97069 191.01953 295.83203 L 173.11914 277.94336 C 168.98878 273.79634 162.23254 273.79634 158.06055 277.94336 L 146.54688 289.44531 C 143.29263 292.71205 142.41655 300.3652 146.54688 304.50391 L 191.01953 348.96484 C 195.14987 353.1035 201.94778 353.1035 206.07812 348.96484 L 307.04492 248.02148 C 311.17526 243.87864 311.17526 237.10404 307.04492 232.95703 L 295.53125 221.45508 C 293.44509 219.38361 290.71164 218.35156 287.98438 218.35156 z"/></svg>

<svg xmlns="http://www.w3.org/2000/svg" width="100%" height="100%" viewBox="-75.52 -43.52 599.04 599.04"><path d="M48 32C21.5 32 0 53.5 0 80v352c0 26.5 21.5 48 48 48h352c26.5 0 48-21.5 48-48V80c0-26.5-21.5-48-48-48H48zm176.021 64c9.304 0 18.649 2.044 25.7 6.137l94.666 54.64c14.143 8.178 25.74 28.229 25.74 44.57V310.65c0 16.347-11.597 36.405-25.74 44.579l-94.666 54.654c-7.051 4.08-16.396 6.117-25.7 6.117-9.345 0-18.691-2.037-25.742-6.117l-94.664-54.654c-14.143-8.174-25.742-28.232-25.742-44.579V201.348c0-16.342 11.599-36.393 25.742-44.57l94.664-54.641C205.33 98.044 214.676 96 224.021 96zm-30.416 68.771v35.893h15.688c10.263 0 18.566-7.023 18.566-17.79 0-10.77-8.303-18.103-18.566-18.103h-15.688zm38.215 0v35.893h26.37v-8.049h-17.772v-6.355h13.684v-7.541h-13.684v-5.905h17.478v-8.043H231.82zm-29.58 8.043h7.053c5.132 0 9.594 3.901 9.594 10.06 0 6.149-4.462 9.741-9.594 9.741h-7.053v-19.8zm85.744 45.538a10.576 10.576 0 00-7.517 3.103l-74.389 74.377c-4.13 4.139-10.928 4.139-15.058 0l-17.9-17.889c-4.131-4.147-10.887-4.147-15.06 0l-11.513 11.502c-3.254 3.267-4.13 10.92 0 15.059l44.473 44.46c4.13 4.14 10.928 4.14 15.058 0l100.967-100.943c4.13-4.142 4.13-10.917 0-15.064l-11.514-11.502a10.68 10.68 0 00-7.547-3.103z"/></svg>
